gviz/layers/character-home-sad.svg

<svg width="409" height="1136" viewBox="0 0 409 1136" fill="none" xmlns="http://www.w3.org/2000/svg">
<path fill-rule="evenodd" clip-rule="evenodd" d="M211.172 528.017C151.012 527.946 119.976 517.462 107.698 513.315C105.119 512.444 103.368 511.852 102.348 511.695C97.6335 510.97 94.7712 515.624 93.9293 518.043C90.4268 535.491 89.4966 560.818 87.5088 614.937C86.4389 644.068 85.0625 681.541 82.8137 730.618C76.9079 859.503 69.2581 1030.1 68.0568 1056.9C67.9576 1059.12 69.331 1061.02 71.4406 1061.69C120.475 1077.39 174.531 1069.78 197.468 1063.16C199.515 1062.57 200.865 1060.73 200.894 1058.6C201.134 1041.26 202.163 962.858 202.163 893.703C202.163 815.595 204.203 693.117 204.212 692.577C204.212 692.561 204.212 692.567 204.212 692.55C204.215 680.583 206.253 674.659 208.387 668.458C209.163 666.2 213.18 666.2 213.957 668.458C216.091 674.659 218.129 680.583 218.132 692.55C218.132 692.567 218.131 692.561 218.132 692.577C218.141 693.117 220.181 815.595 220.181 893.703C220.181 962.858 221.21 1041.26 221.449 1058.6C221.479 1060.73 222.829 1062.57 224.876 1063.16C247.812 1069.78 301.869 1077.39 350.903 1061.69C353.013 1061.02 354.386 1059.12 354.287 1056.9C353.086 1030.1 345.436 859.503 339.53 730.618C337.281 681.541 335.905 644.068 334.835 614.937C332.847 560.818 331.917 535.491 328.414 518.043C327.573 515.624 324.71 510.97 319.996 511.695C318.976 511.852 317.225 512.444 314.646 513.315C302.368 517.462 271.332 527.946 211.172 528.017Z" fill="url(#paint0_linear_302:9556)"/>
<path d="M308.558 553.555C309.49 569.397 314.152 590.831 332.801 593.627" stroke="white" stroke-width="3" stroke-linecap="round"/>
<path d="M333.56 347.062C332.226 234.999 288.461 216.559 263.569 213.139C214.168 204.299 173.28 209.456 159.011 213.139C97.5073 231.06 90.1366 264.861 85.0297 340.981C81.6718 391.03 74.9545 483.678 82.3131 526.176C84.5266 538.958 94.3032 542.153 98.9148 542.153C179.158 555.847 265.895 550.825 315.271 543.419C327.745 541.548 331.609 534.687 332.543 526.176C336.861 486.821 333.081 384.014 333.56 347.062Z" fill="#120F8A"/>
<path d="M370.464 622.458C376.716 610.213 381.72 591.465 379.934 564.36L335.994 560.392C335.994 560.392 332.907 576.662 332.059 586.036C331.212 595.409 328.408 613.348 336.828 614.396C335.906 640.407 330.512 644.742 332.975 649.116C334.945 652.615 341.286 652.041 344.209 651.317C357.421 650.612 364.15 634.342 370.464 622.458Z" fill="#E9F0FD"/>
<path d="M309.525 212.561L260.557 192.796C255.119 240.345 308.851 259.944 319.849 316.498C329.504 368.663 330.36 537.389 331.89 557.86C331.89 562.919 330.596 568.566 334.245 568.801L378.406 567.574C385.17 567.106 386.471 561.355 386.276 558.538C399.699 475.624 408.039 361.117 378.509 290.68C364.341 249.678 343.426 230.444 309.525 212.561Z" fill="url(#paint1_linear_302:9556)"/>
<path d="M50.5615 622.458C44.3095 610.213 39.3061 591.465 41.0917 564.36L85.0317 560.392C85.0317 560.392 88.1193 576.662 88.9668 586.036C89.8142 595.409 92.6179 613.348 84.1974 614.396C85.1198 640.407 90.5137 644.742 88.0508 649.116C86.0805 652.615 79.7403 652.041 76.8165 651.317C63.6046 650.612 56.8761 634.342 50.5615 622.458Z" fill="#E9F0FD"/>
<path d="M118.414 210.887L171.626 191.277C177.821 239.16 119.42 258.576 107.769 315.428C97.5547 367.87 97.5925 537.668 96.0438 558.261C96.0729 563.352 97.5154 569.043 93.543 569.259L45.4453 567.77C38.0767 567.26 36.627 561.465 36.8233 558.632C21.7285 475.111 11.988 359.826 43.7414 289.109C58.9339 247.925 81.5991 228.689 118.414 210.887Z" fill="url(#paint2_linear_302:9556)"/>
<path d="M83.0198 615.305C81.0729 615.559 76.5408 614.236 73.9871 606.907C71.9023 599.535 70.8876 588.331 65.9436 581.625" stroke="#0F0967" stroke-width="3" stroke-linecap="round"/>
<path d="M338.006 615.305C339.953 615.559 344.485 614.236 347.039 606.907C349.124 599.535 350.138 588.331 355.082 581.625" stroke="#0F0967" stroke-width="3" stroke-linecap="round"/>
<ellipse rx="45.7387" ry="45.2523" transform="matrix(0.999718 -0.0237272 0.0237529 0.999718 206.978 327.257)" fill="#59F0E7" fill-opacity="0.3"/>
<ellipse rx="39.5016" ry="39.0815" transform="matrix(0.999718 -0.0237272 0.0237529 0.999718 207.226 327.251)" fill="#59F0E7" fill-opacity="0.4"/>
<ellipse rx="32.4329" ry="32.4994" transform="matrix(0.999718 -0.0237272 0.0237529 0.999718 206.978 327.257)" fill="#59F0E7"/>
<path d="M223.299 336.7L223.335 336.613L223.366 336.524C224.761 332.509 224.645 327.875 223.034 323.817C222.365 322.131 220.883 321.21 219.366 321.077C219.298 320.905 219.225 320.73 219.148 320.554L215.945 321.965L219.148 320.554C218.534 319.16 218.03 318.365 216.365 316.28L216.219 316.096L216.113 315.995C216.098 315.975 216.075 315.945 216.037 315.895L216.028 315.883C215.972 315.807 215.872 315.675 215.761 315.539C215.678 315.437 215.575 315.315 215.451 315.184C215.254 314.944 215.083 314.739 214.932 314.559C214.565 314.12 214.319 313.827 214.125 313.528C213.801 312.241 213.727 311.12 213.752 310.298C213.802 308.639 212.977 307.216 211.866 306.372C210.71 305.494 208.801 304.964 206.957 306.008C204.536 307.379 202.329 309.377 200.674 311.848C199.884 312.996 199.201 314.235 198.619 315.549C197.417 314.903 195.757 314.763 194.327 315.757C193.018 316.667 192.572 318.067 192.533 319.134C192.497 320.133 192.301 321.699 191.735 323.261C191.615 323.585 191.197 324.769 190.793 326.086C190.442 327.232 189.92 329.037 189.854 330.34C189.598 333.991 190.474 336.472 191.079 337.757C192.4 340.607 195.507 344.685 201.204 346.674C206.798 348.628 211.856 347.339 214.122 346.178C220.135 343.421 222.508 338.637 223.299 336.7Z" fill="#CA0D7B" stroke="#FF7EC9" stroke-width="7"/>
<path d="M211.257 338.716C210.214 339.812 208.78 340.535 207.177 340.573C202.826 340.676 198.966 335.716 202.15 331.508C203.402 329.565 205.14 328.758 205.779 326.753C206.067 325.981 206.119 324.985 206.028 324.375C205.947 324.147 205.85 323.308 205.848 323.231C205.847 323.155 205.847 323.155 205.923 323.153L205.998 323.075C206.074 323.073 206.074 323.073 206.15 323.071C206.306 323.22 206.463 323.37 206.619 323.519C206.932 323.818 207.322 324.191 207.635 324.49C208.417 325.237 209.134 326.521 209.322 327.97C209.518 329.802 209.096 331.343 207.746 332.37C208.362 332.585 208.973 332.571 209.654 332.325C210.714 331.917 211.31 331.291 211.519 330.444C211.519 330.444 211.517 330.367 211.593 330.365L211.67 330.364C212.286 330.579 212.995 331.48 213.122 333.62C213.007 335.23 212.822 337.071 211.257 338.716Z" fill="#FFADDD"/>
<path d="M155.2 73.5621L211.394 73.0517L272.554 72.4962C272.815 101.236 269.831 140.472 267.858 167.487C265.884 194.502 264.612 202.92 261.585 222.118C256.189 256.332 229.43 261.701 212.645 261.62C177.213 261.709 166.735 237.34 163.566 222.225C161.585 209.429 157.363 180.809 155.973 158.597C153.669 121.761 153.781 91.4441 155.2 73.5621Z" fill="#E9F0FF"/>
<path d="M218.995 178.73C214.954 179.038 211.038 178.537 207.583 177.659C203.498 176.62 199.168 180.061 201.846 183.316C205.921 188.267 211.956 189.698 215.428 189.667C219.179 189.945 222.396 188.529 225.051 186.348C228.813 183.257 223.85 178.359 218.995 178.73Z" fill="#D7DDE9"/>
<path d="M198.269 161.751C204.293 156.845 219.071 149.918 229.995 161.463" stroke="#0F0967" stroke-width="3" stroke-linecap="round" stroke-linejoin="round"/>
<path d="M254.428 75.693C216.065 84.8176 181.898 77.5575 172.517 75.7707C163.136 73.984 160.746 71.0227 158.551 84.1514C156.355 97.28 155.705 152.399 155.705 152.399C155.807 163.575 143.833 140.492 143.8 136.96L139.702 111.626C139.402 78.6707 141.417 59.4173 162.818 38.9494C189.105 13.8087 238.974 16.7677 266.055 41.1308C282.558 55.9772 283.604 91.2303 283.492 105.487C283.38 119.744 280.624 135.717 280.624 135.717C278.321 148.302 267.93 162.17 269.048 152.132C270.165 142.094 268.891 94.9884 267.344 84.3714L267.303 84.0936C265.796 73.7412 265.69 73.0143 254.428 75.693Z" fill="#0F43EC"/>
<path d="M146.204 117.151L156.873 118.869L165.647 148.779L152.898 144.71C142.267 141.782 139.06 133.635 138.615 127.744C138.071 120.541 141.532 117.07 146.204 117.151Z" fill="#E9F0FF"/>
<path d="M277.506 115.958L266.87 117.87L258.642 147.934L271.314 143.634C281.89 140.514 284.949 132.31 285.286 126.412C285.699 119.2 282.175 115.792 277.506 115.958Z" fill="#E9F0FF"/>
<path d="M197.424 95.5098C197.836 94.6356 197.461 93.5929 196.587 93.1808C195.713 92.7688 194.67 93.1434 194.258 94.0176L197.424 95.5098ZM178.76 101.076C177.794 101.056 176.994 101.824 176.975 102.79C176.955 103.756 177.722 104.555 178.689 104.575L178.76 101.076ZM194.258 94.0176C193.273 96.1058 190.98 97.9219 187.963 99.2143C184.983 100.49 181.574 101.133 178.76 101.076L178.689 104.575C182.018 104.643 185.921 103.896 189.341 102.431C192.723 100.982 195.917 98.7052 197.424 95.5098L194.258 94.0176Z" fill="#0F0967"/>
<path d="M230.203 94.5087C229.837 93.6143 230.265 92.5924 231.159 92.2261C232.054 91.8599 233.076 92.2881 233.442 93.1825L230.203 94.5087ZM248.553 101.034C249.519 101.065 250.277 101.872 250.247 102.838C250.217 103.804 249.409 104.563 248.443 104.532L248.553 101.034ZM233.442 93.1825C234.317 95.3189 236.513 97.2513 239.459 98.6983C242.368 100.127 245.74 100.945 248.553 101.034L248.443 104.532C245.114 104.427 241.256 103.48 237.916 101.84C234.614 100.218 231.542 97.778 230.203 94.5087L233.442 93.1825Z" fill="#0F0967"/>
<ellipse rx="4.16076" ry="4.1587" transform="matrix(0.999983 -0.00908251 0.00909161 0.999935 189.748 113.117)" fill="#0F0967"/>
<ellipse rx="4.16076" ry="4.15871" transform="matrix(0.999983 -0.00908223 0.00909191 0.999935 235.809 112.699)" fill="#0F0967"/>
<path d="M217.425 102.922L222.021 138.198C222.253 139.983 220.873 141.569 219.073 141.585L205.295 141.71" stroke="#0F0967" stroke-width="3" stroke-linecap="round"/>
<path d="M114.616 553.555C113.683 569.397 109.021 590.831 90.373 593.627" stroke="white" stroke-width="3" stroke-linecap="round"/>
<path d="M193.935 1066.04C195.978 1074.87 195.16 1087.47 195.16 1087.47L195.137 1105.95C195.136 1106.98 194.733 1107.97 193.944 1108.64C191.568 1110.65 185.484 1115.18 174.362 1119.69C159.443 1125.75 146.156 1130.18 127.275 1131.57C107.694 1132.51 95.3396 1132.51 81.3533 1130.88C61.3843 1127.52 54.7893 1127.8 55.2664 1121.43L55.4979 1100.75C55.9863 1084.15 66.9131 1071.9 83.5176 1066.58C98.6195 1062.32 119.329 1059.16 141.457 1077.07" stroke="white" stroke-width="3" stroke-linecap="round"/>
<path d="M56.0809 1105.58C75.9922 1115.27 160.199 1117.85 195.161 1087.47" stroke="white" stroke-width="3"/>
<path d="M94.6027 1111.98L94.1513 1131.81" stroke="white" stroke-width="3"/>
<path d="M116.06 1112.68L115.971 1131.36" stroke="white" stroke-width="3"/>
<path d="M137.256 1108.93L137.296 1131.32" stroke="white" stroke-width="3"/>
<path d="M154.017 1106.78L153.562 1128.14" stroke="white" stroke-width="3"/>
<path d="M167.278 1102.39L167.039 1122.72" stroke="white" stroke-width="3"/>
<path d="M178.724 1098.04L178.641 1118.38" stroke="white" stroke-width="3"/>
<path d="M187.906 1093.06L188.135 1113.4" stroke="white" stroke-width="3"/>
<path d="M74.3061 1110.61L73.8095 1129.31" stroke="white" stroke-width="3"/>
<path d="M232.321 1066.04C230.278 1074.87 231.096 1087.47 231.096 1087.47L231.119 1105.95C231.121 1106.98 231.523 1107.97 232.312 1108.64C234.688 1110.65 240.773 1115.18 251.895 1119.69C266.814 1125.75 280.1 1130.18 298.982 1131.57C318.563 1132.51 330.917 1132.51 344.903 1130.88C364.872 1127.52 371.467 1127.8 370.99 1121.43L370.758 1100.75C370.27 1084.15 359.343 1071.9 342.739 1066.58C327.637 1062.32 306.927 1059.16 284.799 1077.07" stroke="white" stroke-width="3" stroke-linecap="round"/>
<path d="M370.175 1105.58C350.264 1115.27 266.057 1117.85 231.095 1087.47" stroke="white" stroke-width="3"/>
<path d="M331.654 1111.98L332.105 1131.81" stroke="white" stroke-width="3"/>
<path d="M310.196 1112.68L310.285 1131.36" stroke="white" stroke-width="3"/>
<path d="M289 1108.93L288.96 1131.32" stroke="white" stroke-width="3"/>
<path d="M272.239 1106.78L272.694 1128.14" stroke="white" stroke-width="3"/>
<path d="M258.978 1102.39L259.218 1122.72" stroke="white" stroke-width="3"/>
<path d="M247.532 1098.04L247.616 1118.38" stroke="white" stroke-width="3"/>
<path d="M238.35 1093.06L238.121 1113.4" stroke="white" stroke-width="3"/>
<path d="M351.95 1110.61L352.447 1129.31" stroke="white" stroke-width="3"/>
<defs>
<linearGradient id="paint0_linear_302:9556" x1="177.042" y1="511.619" x2="177.042" y2="1070.82" gradientUnits="userSpaceOnUse">
<stop stop-color="#1638FF"/>
<stop offset="1" stop-color="#0F0E78"/>
</linearGradient>
<linearGradient id="paint1_linear_302:9556" x1="330.402" y1="353.033" x2="344.185" y2="615.065" gradientUnits="userSpaceOnUse">
<stop stop-color="#120F8A"/>
<stop offset="1" stop-color="#0339C6"/>
</linearGradient>
<linearGradient id="paint2_linear_302:9556" x1="96.4874" y1="352.136" x2="82.2876" y2="615.723" gradientUnits="userSpaceOnUse">
<stop stop-color="#120F8A"/>
<stop offset="1" stop-color="#0339C6"/>
</linearGradient>
</defs>
</svg>

<svg xmlns="http://www.w3.org/2000/svg" width="409" height="1136" fill="none" xmlns:v="https://vecta.io/nano">
    <style>
        <![CDATA[
        .B {
            stroke: #fff
        }

        .C {
            stroke-linecap: round
        }

        .D {
            stroke-width: 3
        }

        .E {
            stroke: #0f0967
        }
        ]]>
    </style>
    <path fill-rule="evenodd"
        d="M211.172 528.017c-60.16-.071-91.196-10.555-103.474-14.702-2.579-.871-4.33-1.463-5.35-1.62-4.715-.725-7.577 3.929-8.419 6.348-3.502 17.448-4.433 42.775-6.421 96.894l-4.695 115.681L68.057 1056.9c-.099 2.22 1.274 4.12 3.384 4.79 49.034 15.7 103.09 8.09 126.027 1.47 2.047-.59 3.397-2.43 3.426-4.56l1.269-164.897 2.049-201.126v-.027c.003-11.967 2.041-17.891 4.175-24.092.776-2.258 4.793-2.258 5.57 0 2.134 6.201 4.172 12.125 4.175 24.092 0 .017-.001.011 0 .027l2.049 201.126 1.268 164.897c.03 2.13 1.38 3.97 3.427 4.56 22.936 6.62 76.993 14.23 126.027-1.47 2.11-.67 3.483-2.57 3.384-4.79L339.53 730.618l-4.695-115.681c-1.988-54.119-2.918-79.446-6.421-96.894-.841-2.419-3.704-7.073-8.418-6.348-1.02.157-2.771.749-5.35 1.62-12.278 4.147-43.314 14.631-103.474 14.702z"
        fill="url(#A)" />
    <path d="M308.558 553.555c.932 15.842 5.594 37.276 24.243 40.072" class="B C D" />
    <path
        d="M333.56 347.062c-1.334-112.063-45.099-130.503-69.991-133.923-49.401-8.84-90.289-3.683-104.558 0-61.504 17.921-68.874 51.722-73.981 127.842-3.358 50.049-10.075 142.697-2.717 185.195 2.213 12.782 11.99 15.977 16.602 15.977 80.243 13.694 166.98 8.672 216.356 1.266 12.474-1.871 16.338-8.732 17.272-17.243 4.318-39.355.538-142.162 1.017-179.114z"
        fill="#120f8a" />
    <path
        d="M370.464 622.458c6.252-12.245 11.256-30.993 9.47-58.098l-43.94-3.968s-3.087 16.27-3.935 25.644-3.651 27.312 4.769 28.36c-.922 26.011-6.316 30.346-3.853 34.72 1.97 3.499 8.311 2.925 11.234 2.201 13.212-.705 19.941-16.975 26.255-28.859z"
        fill="#e9f0fd" />
    <path
        d="M309.525 212.561l-48.968-19.765c-5.438 47.549 48.294 67.148 59.292 123.702 9.655 52.165 10.511 220.891 12.041 241.362 0 5.059-1.294 10.706 2.355 10.941l44.161-1.227c6.764-.468 8.065-6.219 7.87-9.036 13.423-82.914 21.763-197.421-7.767-267.858-14.168-41.002-35.083-60.236-68.984-78.119z"
        fill="url(#B)" />
    <path
        d="M50.562 622.458c-6.252-12.245-11.255-30.993-9.47-58.098l43.94-3.968s3.088 16.27 3.935 25.644 3.651 27.312-4.769 28.36c.922 26.011 6.316 30.346 3.853 34.72-1.97 3.499-8.31 2.925-11.234 2.201-13.212-.705-19.94-16.975-26.255-28.859z"
        fill="#e9f0fd" />
    <path
        d="M118.414 210.887l53.212-19.61c6.195 47.883-52.206 67.299-63.857 124.151-10.214 52.442-10.177 222.24-11.725 242.833.029 5.091 1.472 10.782-2.501 10.998l-48.098-1.489c-7.369-.51-8.818-6.305-8.622-9.138-15.095-83.521-24.835-198.806 6.918-269.523 15.193-41.184 37.858-60.42 74.673-78.222z"
        fill="url(#C)" />
    <path
        d="M83.02 615.305c-1.947.254-6.479-1.069-9.033-8.398-2.085-7.372-3.099-18.576-8.043-25.282m272.062 33.68c1.947.254 6.479-1.069 9.033-8.398 2.085-7.372 3.099-18.576 8.043-25.282"
        class="C D E" />
    <g fill="#59f0e7">
        <ellipse rx="45.739" ry="45.252" transform="matrix(.999718 -.023727 .023753 .999718 206.978 327.257)"
            fill-opacity=".3" />
        <ellipse rx="39.502" ry="39.082" transform="matrix(.999718 -.023727 .023753 .999718 207.226 327.251)"
            fill-opacity=".4" />
        <ellipse rx="32.433" ry="32.499" transform="matrix(.999718 -.023727 .023753 .999718 206.978 327.257)" />
    </g>
    <path
        d="M223.299 336.7l.036-.087.031-.089c1.395-4.015 1.279-8.649-.332-12.707a4.31 4.31 0 0 0-3.668-2.74 15.81 15.81 0 0 0-.218-.523l-3.203 1.411 3.203-1.411c-.614-1.394-1.118-2.189-2.783-4.274l-.146-.184-.106-.101-.076-.1-.009-.012c-.056-.076-.156-.208-.267-.344-.083-.102-.186-.224-.31-.355l-.519-.625c-.367-.439-.613-.732-.807-1.031-.324-1.287-.398-2.408-.373-3.23.05-1.659-.775-3.082-1.886-3.926-1.156-.878-3.065-1.408-4.909-.364-2.421 1.371-4.628 3.369-6.283 5.84a22.81 22.81 0 0 0-2.055 3.701c-1.202-.646-2.862-.786-4.292.208-1.309.91-1.755 2.31-1.794 3.377a14.13 14.13 0 0 1-.798 4.127c-.12.324-.538 1.508-.942 2.825-.351 1.146-.873 2.951-.939 4.254-.256 3.651.62 6.132 1.225 7.417 1.321 2.85 4.428 6.928 10.125 8.917 5.594 1.954 10.652.665 12.918-.496 6.013-2.757 8.386-7.541 9.177-9.478z"
        fill="#ca0d7b" stroke="#ff7ec9" stroke-width="7" />
    <path
        d="M211.257 338.716c-1.043 1.096-2.477 1.819-4.08 1.857-4.351.103-8.211-4.857-5.027-9.065 1.252-1.943 2.99-2.75 3.629-4.755.288-.772.34-1.768.249-2.378-.081-.228-.178-1.067-.18-1.144s-.001-.076.075-.078l.075-.078.152-.004.469.448 1.016.971c.782.747 1.499 2.031 1.687 3.48.196 1.832-.226 3.373-1.576 4.4.616.215 1.227.201 1.908-.045 1.06-.408 1.656-1.034 1.865-1.881 0 0-.002-.077.074-.079l.077-.001c.616.215 1.325 1.116 1.452 3.256-.115 1.61-.3 3.451-1.865 5.096z"
        fill="#ffaddd" />
    <path
        d="M155.2 73.562l56.194-.51 61.16-.555c.261 28.74-2.723 67.976-4.696 94.991s-3.246 35.433-6.273 54.631c-5.396 34.214-32.155 39.583-48.94 39.502-35.432.089-45.91-24.28-49.079-39.395-1.981-12.796-6.203-41.416-7.593-63.628-2.304-36.836-2.192-67.153-.773-85.035z"
        fill="#e9f0ff" />
    <path
        d="M218.995 178.73c-4.041.308-7.957-.193-11.412-1.071-4.085-1.039-8.415 2.402-5.737 5.657 4.075 4.951 10.11 6.382 13.582 6.351 3.751.278 6.968-1.138 9.623-3.319 3.762-3.091-1.201-7.989-6.056-7.618z"
        fill="#d7dde9" />
    <path d="M198.269 161.751c6.024-4.906 20.802-11.833 31.726-.288" stroke-linejoin="round" class="C D E" />
    <path
        d="M254.428 75.693c-38.363 9.125-72.53 1.865-81.911.078s-11.771-4.748-13.966 8.381-2.846 68.248-2.846 68.248c.102 11.176-11.872-11.907-11.905-15.439l-4.098-25.334c-.3-32.955 1.715-52.209 23.116-72.677 26.287-25.141 76.156-22.182 103.237 2.181 16.503 14.846 17.549 50.1 17.437 64.356s-2.868 30.23-2.868 30.23c-2.303 12.585-12.694 26.453-11.576 16.415s-.157-57.144-1.704-67.761l-.041-.278c-1.507-10.352-1.613-11.079-12.875-8.401z"
        fill="#0f43ec" />
    <path
        d="M146.204 117.151l10.669 1.718 8.774 29.91-12.749-4.069c-10.631-2.928-13.838-11.075-14.283-16.966-.544-7.203 2.917-10.674 7.589-10.593zm131.302-1.193l-10.636 1.912-8.228 30.064 12.672-4.3c10.576-3.12 13.635-11.324 13.972-17.222.413-7.212-3.111-10.62-7.78-10.454z"
        fill="#e9f0ff" />
    <g fill="#0f0967">
        <path
            d="M197.424 95.51a1.75 1.75 0 1 0-3.166-1.492l3.166 1.492zm-18.664 5.566a1.75 1.75 0 0 0-1.785 1.714 1.75 1.75 0 0 0 1.714 1.785l.071-3.499zm15.498-7.058c-.985 2.088-3.278 3.904-6.295 5.197-2.98 1.276-6.389 1.919-9.203 1.862l-.071 3.499c3.329.068 7.232-.679 10.652-2.144 3.382-1.449 6.576-3.726 8.083-6.921l-3.166-1.492zm35.945.491a1.75 1.75 0 1 1 3.239-1.326l-3.239 1.326zm18.35 6.525a1.75 1.75 0 0 1 1.694 1.804 1.75 1.75 0 0 1-1.804 1.694l.11-3.498zm-15.111-7.852c.875 2.136 3.071 4.069 6.017 5.516 2.909 1.429 6.281 2.247 9.094 2.336l-.11 3.498c-3.329-.105-7.187-1.052-10.527-2.692-3.302-1.622-6.374-4.062-7.713-7.331l3.239-1.326z" />
        <ellipse rx="4.161" ry="4.159" transform="matrix(.999983 -.009083 .009092 .999935 189.748 113.117)" />
        <ellipse rx="4.161" ry="4.159" transform="matrix(.999983 -.009082 .009092 .999935 235.809 112.699)" />
    </g>
    <g class="D">
        <g class="C">
            <path d="M217.425 102.922l4.596 35.276a3 3 0 0 1-2.948 3.387l-13.778.125" class="E" />
            <path
                d="M114.616 553.555c-.933 15.842-5.595 37.276-24.243 40.072m103.562 472.413c2.043 8.83 1.225 21.43 1.225 21.43l-.023 18.48c-.001 1.03-.404 2.02-1.193 2.69-2.376 2.01-8.46 6.54-19.582 11.05-14.919 6.06-28.206 10.49-47.087 11.88-19.581.94-31.935.94-45.922-.69-19.969-3.36-26.564-3.08-26.087-9.45l.232-20.68c.488-16.6 11.415-28.85 28.02-34.17 15.102-4.26 35.811-7.42 57.939 10.49"
                class="B" />
        </g>
        <path d="M56.081 1105.58c19.911 9.69 104.118 12.27 139.08-18.11" class="B" />
        <path
            d="M94.603 1111.98l-.451 19.83m21.908-19.13l-.089 18.68m21.285-22.43l.04 22.39m16.721-24.54l-.455 21.36m13.716-25.75l-.239 20.33m11.685-24.68l-.083 20.34m9.265-25.32l.229 20.34m-113.829-2.79l-.497 18.7"
            class="B" />
        <path
            d="M232.321 1066.04c-2.043 8.83-1.225 21.43-1.225 21.43l.023 18.48c.002 1.03.404 2.02 1.193 2.69 2.376 2.01 8.461 6.54 19.583 11.05 14.919 6.06 28.205 10.49 47.087 11.88 19.581.94 31.935.94 45.921-.69 19.969-3.36 26.564-3.08 26.087-9.45l-.232-20.68c-.488-16.6-11.415-28.85-28.019-34.17-15.102-4.26-35.812-7.42-57.94 10.49"
            class="B C" />
        <path d="M370.175 1105.58c-19.911 9.69-104.118 12.27-139.08-18.11" class="B" />
        <path
            d="M331.654 1111.98l.451 19.83m-21.909-19.13l.089 18.68M289 1108.93l-.04 22.39m-16.721-24.54l.455 21.36m-13.716-25.75l.24 20.33m-11.686-24.68l.084 20.34m-9.266-25.32l-.229 20.34m113.829-2.79l.497 18.7"
            class="B" />
    </g>
    <defs>
        <linearGradient id="A" x1="177.042" y1="511.619" x2="177.042" y2="1070.82" gradientUnits="userSpaceOnUse">
            <stop stop-color="#1638ff" />
            <stop offset="1" stop-color="#0f0e78" />
        </linearGradient>
        <linearGradient id="B" x1="330.402" y1="353.033" x2="344.185" y2="615.065" gradientUnits="userSpaceOnUse">
            <stop stop-color="#120f8a" />
            <stop offset="1" stop-color="#0339c6" />
        </linearGradient>
        <linearGradient id="C" x1="96.487" y1="352.136" x2="82.288" y2="615.723" gradientUnits="userSpaceOnUse">
            <stop stop-color="#120f8a" />
            <stop offset="1" stop-color="#0339c6" />
        </linearGradient>
    </defs>
</svg>
